X:1
Q:1/4=80
L:1/8
M:2/4
K:C clef=G2
V:1
%%MIDI program 52
D31/32D31/32D31/32E31/32|D31/16D31/32E31/32|F31/16F31/32E31/32|D31/16D31/32E31/32|
F31/16F31/32D31/32|E31/16E31/16|E31/16E31/16|D31/32D31/32D31/32E31/32|
D31/16D31/32E31/32|F31/16F31/32E31/32|D31/16D31/32E31/32|F31/16F31/32D31/32|
E31/16E31/16|E31/16E31/16|F31/32F31/32F31/32E31/32|G31/16F31/32E31/32|
E31/16D31/16|F31/32F31/32F31/32E31/32|G31/16F31/32E31/32|E31/16D31/16|
F31/32F31/32F31/32E31/32|F31/16F31/32G31/32|A31/16A31/16|G31/32G31/32G31/32F31/32|
F31/16E31/32D31/32|E31/16E31/16|A31/32A31/32A31/32A31/32|A31/16A31/32G31/32|
G31/16F31/16|A31/32A31/32A31/32A31/32|A31/16A31/32G31/32|G31/16F31/16|
^A31/32^A31/32^A31/32^A31/32|^A31/16^A31/32A31/32|A31/16G31/16|A31/32G31/32G31/32F31/32|
G31/16A31/32F31/32|G31/16A31/16|^A31/32^A31/32^A31/32^A31/32|c31/16c31/32^A31/32|
^A31/16A31/16|A31/32G31/32G31/32F31/32|G31/16^G31/32F31/32|G31/32G3-|
G31/16z2
L:1/8
M:2/4
K:C clef=F4
V:2
%%MIDI program 52
D31/32D31/32D31/32E31/32|D31/16D31/32E31/32|F31/16F31/32E31/32|D31/16D31/32E31/32|
F31/16F31/32D31/32|A,31/16A,31/16|A,31/16A,31/16|D31/32D31/32D31/32E31/32|
D31/16D31/32E31/32|F31/16F31/32E31/32|D31/16D31/32E31/32|F31/16F31/32D31/32|
A,31/16A,31/16|A,31/16A,31/16|D31/32D31/32D31/32D31/32|D31/16D31/32E31/32|
D31/16D31/16|D31/32D31/32D31/32D31/32|D31/16D31/32E31/32|D31/16D31/16|
D31/32D31/32D31/32D31/32|D31/16D31/32E31/32|F31/16F31/16|D31/32D31/32D31/32D31/32|
D31/16D31/16|^C31/16^C31/16|C31/32C31/32C31/32C31/32|C31/16C31/32E31/32|
E31/16C31/16|C31/32C31/32C31/32C31/32|C31/16C31/32E31/32|E31/16C31/16|
E31/32E31/32E31/32E31/32|E31/16E31/32F31/32|F31/16E31/16|F31/32F31/32F31/32F31/32|
E31/16F31/16|E31/16F31/16|D31/32D31/32D31/32D31/32|G31/16G31/32E31/32|
E31/16F31/16|F31/32F31/32F31/32F31/32|E31/16F31/16|E31/32E3-|
E31/16z2
L:1/8
M:2/4
K:C clef=F4
V:3
%%MIDI program 53
D,31/32D,31/32D,31/32E,31/32|D,31/16D,31/32E,31/32|F,31/16F,31/32E,31/32|D,31/16D,31/32E,31/32|
F,31/16F,31/32D,31/32|E,31/16E,31/16|E,31/16E,31/16|D,31/32D,31/32D,31/32E,31/32|
D,31/16D,31/32E,31/32|F,31/16F,31/32E,31/32|D,31/16D,31/32E,31/32|F,31/16F,31/32D,31/32|
E,31/16E,31/16|E,31/16E,31/16|A,31/32A,31/32A,31/32A,31/32|A,31/16A,31/16|
A,31/16A,31/16|A,31/32A,31/32A,31/32A,31/32|A,31/16A,31/16|A,31/16A,31/16|
A,31/32A,31/32A,31/32A,31/32|A,31/16A,31/32C31/32|C31/16C31/16|^A,31/32^A,31/32^A,31/32A,31/32|
^A,31/16^A,31/16|A,31/16A,31/16|F31/32F31/32F31/32F31/32|F31/16F31/32C31/32|
C31/16A,31/16|F31/32F31/32F31/32F31/32|F31/16F31/32C31/32|C31/16A,31/16|
C31/32C31/32C31/32C31/32|C31/16C31/32A,31/32|C31/16C31/16|C31/32C31/32C31/32C31/32|
C31/16B,31/16|C31/16C31/16|^A,31/32^A,31/32D31/32D31/32|E31/16E31/32C31/32|
C31/16C31/16|D31/32D31/32D31/32D31/32|C31/16D31/16|C31/32C3-|
C31/16z2
L:1/8
M:2/4
K:C clef=F4
V:4
%%MIDI program 53
D,31/32D,31/32D,31/32E,31/32|D,31/16D,31/32E,31/32|F,31/16F,31/32E,31/32|D,31/16D,31/32E,31/32|
F,31/16F,31/32D,31/32|A,,31/16A,,31/16|A,,31/16A,,31/16|D,31/32D,31/32D,31/32E,31/32|
D,31/16D,31/32E,31/32|F,31/16F,31/32E,31/32|D,31/16D,31/32E,31/32|F,31/16F,31/32D,31/32|
A,,31/16A,,31/16|A,,31/16A,,31/16|F,31/32F,31/32F,31/32F,31/32|F,31/16F,31/16|
A,,31/16A,,31/16|D,31/32D,31/32D,31/32D,31/32|D,31/16D,31/16|A,,31/16A,,31/16|
D,31/32D,31/32D,31/32D,31/32|D,31/16D,31/32C,31/32|F,31/16F,31/16|G,31/32G,31/32G,31/32D,31/32|
^A,,31/16^A,,31/16|A,,31/16A,,31/16|F,31/32F,31/32F,31/32F,31/32|F,31/16F,31/32C,31/32|
C,31/16F,31/16|F,31/32F,31/32F,31/32F,31/32|F,31/16F,31/32C,31/32|C,31/16F,31/16|
[C,G,]31/32[C,G,]31/32[C,G,]31/32[C,G,]31/32|[C,G,]31/16[C,G,]31/32F,31/32|F,31/16C,31/16|F,31/32F,31/32F,31/32F,31/32|
C,31/16D,31/16|E,31/16F,31/16|G,31/32G,31/32G,31/32G,31/32|C,31/16C,31/16|
C,31/16F,31/16|F,31/32F,31/32F,31/32F,31/32|C,31/16B,,31/16|C,31/32C,3-|
C,31/16z2
Q:1/4=80
Q:1/4=80
L:1/8
M:2/4
K:C clef=G2
V:1
%%MIDI program 52
D31/32D31/32D31/32E31/32|D31/16D31/32E31/32|F31/16F31/32E31/32|D31/16D31/32E31/32|
F31/16F31/32D31/32|E31/16E31/16|E31/16E31/16|D31/32D31/32D31/32E31/32|
D31/16D31/32E31/32|F31/16F31/32E31/32|D31/16D31/32E31/32|F31/16F31/32D31/32|
E31/16E31/16|E31/16E31/16|F31/32F31/32F31/32E31/32|G31/16F31/32E31/32|
E31/16D31/16|F31/32F31/32F31/32E31/32|G31/16F31/32E31/32|E31/16D31/16|
F31/32F31/32F31/32E31/32|F31/16F31/32G31/32|A31/16A31/16|G31/32G31/32G31/32F31/32|
F31/16E31/32D31/32|E31/16E31/16|A31/32A31/32A31/32A31/32|A31/16A31/32G31/32|
G31/16F31/16|A31/32A31/32A31/32A31/32|A31/16A31/32G31/32|G31/16F31/16|
^A31/32^A31/32^A31/32^A31/32|^A31/16^A31/32A31/32|A31/16G31/16|A31/32G31/32G31/32F31/32|
G31/16A31/32F31/32|G31/16A31/16|^A31/32^A31/32^A31/32^A31/32|c31/16c31/32^A31/32|
^A31/16A31/16|A31/32G31/32G31/32F31/32|G31/16^G31/32F31/32|
L:1/8
M:2/4
K:C clef=F4
V:2
%%MIDI program 52
D31/32D31/32D31/32E31/32|D31/16D31/32E31/32|F31/16F31/32E31/32|D31/16D31/32E31/32|
F31/16F31/32D31/32|A,31/16A,31/16|A,31/16A,31/16|D31/32D31/32D31/32E31/32|
D31/16D31/32E31/32|F31/16F31/32E31/32|D31/16D31/32E31/32|F31/16F31/32D31/32|
A,31/16A,31/16|A,31/16A,31/16|D31/32D31/32D31/32D31/32|D31/16D31/32E31/32|
D31/16D31/16|D31/32D31/32D31/32D31/32|D31/16D31/32E31/32|D31/16D31/16|
D31/32D31/32D31/32D31/32|D31/16D31/32E31/32|F31/16F31/16|D31/32D31/32D31/32D31/32|
D31/16D31/16|^C31/16^C31/16|C31/32C31/32C31/32C31/32|C31/16C31/32E31/32|
E31/16C31/16|C31/32C31/32C31/32C31/32|C31/16C31/32E31/32|E31/16C31/16|
E31/32E31/32E31/32E31/32|E31/16E31/32F31/32|F31/16E31/16|F31/32F31/32F31/32F31/32|
E31/16F31/16|E31/16F31/16|D31/32D31/32D31/32D31/32|G31/16G31/32E31/32|
E31/16F31/16|F31/32F31/32F31/32F31/32|E31/16F31/16|
L:1/8
M:2/4
K:C clef=F4
V:3
%%MIDI program 53
D,31/32D,31/32D,31/32E,31/32|D,31/16D,31/32E,31/32|F,31/16F,31/32E,31/32|D,31/16D,31/32E,31/32|
F,31/16F,31/32D,31/32|E,31/16E,31/16|E,31/16E,31/16|D,31/32D,31/32D,31/32E,31/32|
D,31/16D,31/32E,31/32|F,31/16F,31/32E,31/32|D,31/16D,31/32E,31/32|F,31/16F,31/32D,31/32|
E,31/16E,31/16|E,31/16E,31/16|A,31/32A,31/32A,31/32A,31/32|A,31/16A,31/16|
A,31/16A,31/16|A,31/32A,31/32A,31/32A,31/32|A,31/16A,31/16|A,31/16A,31/16|
A,31/32A,31/32A,31/32A,31/32|A,31/16A,31/32C31/32|C31/16C31/16|^A,31/32^A,31/32^A,31/32A,31/32|
^A,31/16^A,31/16|A,31/16A,31/16|F31/32F31/32F31/32F31/32|F31/16F31/32C31/32|
C31/16A,31/16|F31/32F31/32F31/32F31/32|F31/16F31/32C31/32|C31/16A,31/16|
C31/32C31/32C31/32C31/32|C31/16C31/32A,31/32|C31/16C31/16|C31/32C31/32C31/32C31/32|
C31/16B,31/16|C31/16C31/16|^A,31/32^A,31/32D31/32D31/32|E31/16E31/32C31/32|
C31/16C31/16|D31/32D31/32D31/32D31/32|C31/16D31/16|
L:1/8
M:2/4
K:C clef=F4
V:4
%%MIDI program 53
D,31/32D,31/32D,31/32E,31/32|D,31/16D,31/32E,31/32|F,31/16F,31/32E,31/32|D,31/16D,31/32E,31/32|
F,31/16F,31/32D,31/32|A,,31/16A,,31/16|A,,31/16A,,31/16|D,31/32D,31/32D,31/32E,31/32|
D,31/16D,31/32E,31/32|F,31/16F,31/32E,31/32|D,31/16D,31/32E,31/32|F,31/16F,31/32D,31/32|
A,,31/16A,,31/16|A,,31/16A,,31/16|F,31/32F,31/32F,31/32F,31/32|F,31/16F,31/16|
A,,31/16A,,31/16|D,31/32D,31/32D,31/32D,31/32|D,31/16D,31/16|A,,31/16A,,31/16|
D,31/32D,31/32D,31/32D,31/32|D,31/16D,31/32C,31/32|F,31/16F,31/16|G,31/32G,31/32G,31/32D,31/32|
^A,,31/16^A,,31/16|A,,31/16A,,31/16|F,31/32F,31/32F,31/32F,31/32|F,31/16F,31/32C,31/32|
C,31/16F,31/16|F,31/32F,31/32F,31/32F,31/32|F,31/16F,31/32C,31/32|C,31/16F,31/16|
[C,G,]31/32[C,G,]31/32[C,G,]31/32[C,G,]31/32|[C,G,]31/16[C,G,]31/32F,31/32|F,31/16C,31/16|F,31/32F,31/32F,31/32F,31/32|
C,31/16D,31/16|E,31/16F,31/16|G,31/32G,31/32G,31/32G,31/32|C,31/16C,31/16|
C,31/16F,31/16|F,31/32F,31/32F,31/32F,31/32|C,31/16B,,31/16|
Q:1/4=80
L:1/8
M:2/4
K:C clef=G2
V:1
%%MIDI program 52
G31/32
L:1/8
M:2/4
K:C clef=F4
V:2
%%MIDI program 52
E31/32
L:1/8
M:2/4
K:C clef=F4
V:3
%%MIDI program 53
C31/32
L:1/8
M:2/4
K:C clef=F4
V:4
%%MIDI program 53
C,31/32
Q:1/4=78
L:1/8
M:2/4
K:C clef=G2
V:1
%%MIDI program 52
G2-G31/32
L:1/8
M:2/4
K:C clef=F4
V:2
%%MIDI program 52
E2-E31/32
L:1/8
M:2/4
K:C clef=F4
V:3
%%MIDI program 53
C2-C31/32
L:1/8
M:2/4
K:C clef=F4
V:4
%%MIDI program 53
C,2-C,31/32
Q:1/4=73
L:1/8
M:2/4
K:C clef=G2
V:1
%%MIDI program 52
c31/32
L:1/8
M:2/4
K:C clef=F4
V:2
%%MIDI program 52
E31/32
L:1/8
M:2/4
K:C clef=F4
V:3
%%MIDI program 53
C31/32
L:1/8
M:2/4
K:C clef=F4
V:4
%%MIDI program 53
[C,G,]31/32
Q:1/4=72
L:1/8
M:2/4
K:C clef=G2
V:1
%%MIDI program 52
c31/32
L:1/8
M:2/4
K:C clef=F4
V:2
%%MIDI program 52
E31/32
L:1/8
M:2/4
K:C clef=F4
V:3
%%MIDI program 53
C31/32
L:1/8
M:2/4
K:C clef=F4
V:4
%%MIDI program 53
[C,G,]31/32
Q:1/4=70
L:1/8
M:2/4
K:C clef=G2
V:1
%%MIDI program 52
c31/32
L:1/8
M:2/4
K:C clef=F4
V:2
%%MIDI program 52
E31/32
L:1/8
M:2/4
K:C clef=F4
V:3
%%MIDI program 53
C31/32
L:1/8
M:2/4
K:C clef=F4
V:4
%%MIDI program 53
[C,G,]31/32
Q:1/4=68
L:1/8
M:2/4
K:C clef=G2
V:1
%%MIDI program 52
c31/32
L:1/8
M:2/4
K:C clef=F4
V:2
%%MIDI program 52
E31/32
L:1/8
M:2/4
K:C clef=F4
V:3
%%MIDI program 53
C31/32
L:1/8
M:2/4
K:C clef=F4
V:4
%%MIDI program 53
[C,G,]31/32
Q:1/4=67
L:1/8
M:2/4
K:C clef=G2
V:1
%%MIDI program 52
c31/16
L:1/8
M:2/4
K:C clef=F4
V:2
%%MIDI program 52
E31/16
L:1/8
M:2/4
K:C clef=F4
V:3
%%MIDI program 53
C31/16
L:1/8
M:2/4
K:C clef=F4
V:4
%%MIDI program 53
[C,G,]31/16
Q:1/4=63
L:1/8
M:2/4
K:C clef=G2
V:1
%%MIDI program 52
c31/32
L:1/8
M:2/4
K:C clef=F4
V:2
%%MIDI program 52
E31/32
L:1/8
M:2/4
K:C clef=F4
V:3
%%MIDI program 53
C31/32
L:1/8
M:2/4
K:C clef=F4
V:4
%%MIDI program 53
[C,G,]31/32
Q:1/4=62
L:1/8
M:2/4
K:C clef=G2
V:1
%%MIDI program 52
^A31/32
L:1/8
M:2/4
K:C clef=G2
V:2
%%MIDI program 52
G31/32
L:1/8
M:2/4
K:C clef=F4
V:3
%%MIDI program 53
E31/32
L:1/8
M:2/4
K:C clef=F4
V:4
%%MIDI program 53
[C,C]31/32
Q:1/4=60
L:1/8
M:2/4
K:C clef=G2
V:1
%%MIDI program 52
^A31/32A3-|A4-A31/32|z31/32
L:1/8
M:2/4
K:C clef=G2
V:2
%%MIDI program 52
G31/32F3-|F4-F31/32|z31/32
L:1/8
M:2/4
K:C clef=G2
V:3
%%MIDI program 53
E31/32F3-|F4-F31/32|z31/32
L:1/8
M:2/4
K:C clef=F4
V:4
%%MIDI program 53
[C,C]31/32[F,-C-]3|[F,-C-]4[F,C]31/32|z31/32


